X:7455
T:I Have No Money
T:N\'il Aon Airgead Agam
R:reel
D:Terry Bingham
Z:id:hn-reel-343
M:C|
K:D
FAdB ~A3G|(3FGA dA FEEG|FAdB ABdf|1 afeg fedB:|2 afeg fddf||
|:afef dcdf|afea fb~b2|1 afef dcdB|ABAG FDDf:|2 af (3gfe fdBd|ABAG FDDE||
